icons/svg/shields/h_gray_blue_square_shelter_yes_shield.svg

<?xml version="1.0" encoding="UTF-8" standalone="no"?>
<!-- Generator: Adobe Illustrator 16.0.4, SVG Export Plug-In . SVG Version: 6.00 Build 0)  -->

<svg
   xmlns:dc="http://purl.org/dc/elements/1.1/"
   xmlns:cc="http://creativecommons.org/ns#"
   xmlns:rdf="http://www.w3.org/1999/02/22-rdf-syntax-ns#"
   xmlns:svg="http://www.w3.org/2000/svg"
   xmlns="http://www.w3.org/2000/svg"
   xmlns:sodipodi="http://sodipodi.sourceforge.net/DTD/sodipodi-0.dtd"
   xmlns:inkscape="http://www.inkscape.org/namespaces/inkscape"
   version="1.1"
   id="Слой_1"
   x="0px"
   y="0px"
   width="32"
   height="32"
   viewBox="0 0 31.999999 32"
   enable-background="new 0 0 17.113 17.143"
   xml:space="preserve"
   inkscape:version="0.91 r"
   sodipodi:docname="h_gray_blue_square_shelter_yes_big_shield.svg"><metadata
     id="metadata13"><rdf:RDF><cc:Work
         rdf:about=""><dc:format>image/svg+xml</dc:format><dc:type
           rdf:resource="http://purl.org/dc/dcmitype/StillImage" /><dc:title></dc:title></cc:Work></rdf:RDF></metadata><defs
     id="defs11" /><sodipodi:namedview
     pagecolor="#ffffff"
     bordercolor="#666666"
     borderopacity="1"
     objecttolerance="10"
     gridtolerance="10"
     guidetolerance="10"
     inkscape:pageopacity="0"
     inkscape:pageshadow="2"
     inkscape:window-width="1920"
     inkscape:window-height="1006"
     id="namedview9"
     showgrid="false"
     inkscape:zoom="8"
     inkscape:cx="4.3175358"
     inkscape:cy="20.875932"
     inkscape:window-x="1920"
     inkscape:window-y="0"
     inkscape:window-maximized="1"
     inkscape:current-layer="Слой_1"
     fit-margin-top="0"
     fit-margin-left="0"
     fit-margin-right="0"
     fit-margin-bottom="0"
     inkscape:showpageshadow="false"
     inkscape:snap-object-midpoints="true"
     inkscape:snap-center="true"
     inkscape:snap-page="true"
     inkscape:object-nodes="true"
     inkscape:object-paths="true"><inkscape:grid
       type="xygrid"
       id="grid2991"
       empspacing="5"
       visible="true"
       enabled="true"
       snapvisiblegridlinesonly="true"
       originx="-1.3381215e-05px"
       originy="0.0064353387px" /></sodipodi:namedview><g
     id="g2117"
     transform="matrix(0.08631273,0,0,0.08631273,32.3743,10.240733)"
     style="fill:#000000"><g
       id="g2119"
       style="fill:#000000"><g
         id="g2121"
         style="fill:#000000"><path
           inkscape:connector-curvature="0"
           id="path2125"
           style="fill:#000000;stroke:none"
           d="" /></g><g
         id="g2127"
         style="fill:#000000"><path
           inkscape:connector-curvature="0"
           id="path2131"
           style="fill:#000000;stroke:none"
           d="" /></g></g></g><g
     transform="matrix(0.06635536,0,0,0.06635536,28.23946,9.4129627)"
     id="g1327-1"
     style="fill:#ffffff;stroke:none" /><g
     transform="matrix(0.03204005,0,0,0.03206575,5.5417817,7.9038101)"
     id="g1327-2"
     style="color:#000000;clip-rule:nonzero;display:inline;overflow:visible;visibility:visible;opacity:1;isolation:auto;mix-blend-mode:normal;color-interpolation:sRGB;color-interpolation-filters:linearRGB;solid-color:#000000;solid-opacity:1;fill:#eaeaea;fill-opacity:1;fill-rule:nonzero;stroke:none;stroke-width:1.00858963;stroke-linecap:butt;stroke-linejoin:miter;stroke-miterlimit:4;stroke-dasharray:none;stroke-dashoffset:0;stroke-opacity:1;marker:none;color-rendering:auto;image-rendering:auto;shape-rendering:auto;text-rendering:auto;enable-background:accumulate"><path
       inkscape:connector-curvature="0"
       d="M 7.3032039,126.51058 7.4487175,368.22412 C 7.5817173,589.15105 210.10771,573.52713 215.15011,573.52713 l 243.49117,0 c 110.72206,0 187.24695,-62.49207 186.87425,-207.24463 l -0.61736,-239.77192 c -2.9683,-27.202529 7.61384,-61.175794 -8.33634,-87.888581 -71.91255,-120.43651 -270.271,-219.345059 -310.15231,-219.345059 -32.01386,0 -218.13593,95.341758 -297.875276,199.670067 C 2.6861246,52.765825 8.196601,96.549633 7.3032039,126.51058 Z"
       style="color:#000000;clip-rule:nonzero;display:inline;overflow:visible;visibility:visible;isolation:auto;mix-blend-mode:normal;color-interpolation:sRGB;color-interpolation-filters:linearRGB;solid-color:#000000;solid-opacity:1;fill:#eaeaea;fill-opacity:1;fill-rule:nonzero;stroke:none;stroke-width:1.00858963;stroke-linecap:butt;stroke-linejoin:miter;stroke-miterlimit:4;stroke-dasharray:none;stroke-dashoffset:0;stroke-opacity:1;marker:none;color-rendering:auto;image-rendering:auto;shape-rendering:auto;text-rendering:auto;enable-background:accumulate"
       id="path1329-2"
       sodipodi:nodetypes="csssscsssc" /></g><path
     style="color:#000000;display:inline;overflow:visible;visibility:visible;opacity:0.73000004;fill:#608bba;fill-opacity:1;fill-rule:nonzero;stroke:none;stroke-width:1;marker:none;enable-background:accumulate"
     d="M 15.885899,0.43050346 15.429591,0.73470939 5.2006658,7.6173685 5.8471034,8.5680119 C 5.3530231,9.4679212 5.0478672,10.491388 5.0485629,11.648099 l 0,8.327637 c 0.00463,7.596056 6.9375831,7.072789 7.1108141,7.072789 l 8.365663,0 c 3.803869,0 6.439155,-2.171861 6.42635,-7.148841 l 0,-8.251585 C 26.948105,10.388065 26.70656,9.3465577 26.266928,8.4919605 L 26.837313,7.6173685 16.380235,0.73470939 Z m 9.46841,8.25158574 c 0.518821,0.8526065 0.833122,1.9275478 0.836567,3.2702158 l 0.03803,7.681199 c 0.01192,4.641601 -2.460527,6.654505 -6.008067,6.654505 l -7.795277,0 c -0.161559,0 -6.6502463,0.505735 -6.6545051,-6.578453 l 0,-7.757251 C 5.7702868,10.679273 6.1309396,9.5353065 6.7597213,8.6060377 9.9011841,6.4425562 12.817696,4.4381738 15.99996,2.21941 c 3.986442,2.7188194 6.084119,4.0972525 9.354349,6.4626792 z"
     id="path1329-6"
     inkscape:connector-curvature="0"
     sodipodi:nodetypes="ccccccsscccccccccssccccc" /></svg>

<svg width="32" height="32" viewBox="0 0 32 32" fill="none" xmlns="http://www.w3.org/2000/svg">
<path d="M5.77579 11.9604L5.78045 19.7112C5.78471 26.7954 12.2737 26.2944 12.4352 26.2944H20.2367C23.7842 26.2944 26.2361 24.2905 26.2241 19.6489L26.2044 11.9604C26.1093 11.0882 26.4483 9.99879 25.9373 9.14223C23.6332 5.28034 17.2778 2.10876 16 2.10876C14.9742 2.10876 9.01088 5.16597 6.45603 8.51133C5.62786 9.59576 5.80441 10.9997 5.77579 11.9604Z" fill="#EAEAEA"/>
<path opacity="0.73" d="M15.8859 0.430481L15.4296 0.734687L5.20066 7.61735L5.8471 8.56799C5.35301 9.4679 5.04786 10.4914 5.04855 11.6481V19.9757C5.05318 27.5718 11.9861 27.0485 12.1594 27.0485H20.525C24.3289 27.0485 26.9642 24.8766 26.9514 19.8997V11.6481C26.9481 10.388 26.7066 9.34653 26.2669 8.49194L26.8373 7.61735L16.3802 0.734687L15.8859 0.430481ZM25.3543 8.68207C25.8731 9.53467 26.1874 10.6096 26.1909 11.9523L26.2289 19.6335C26.2408 24.2751 23.7684 26.288 20.2208 26.288H12.4256C12.264 26.288 5.77531 26.7937 5.77105 19.7095V11.9523C5.77028 10.6793 6.13093 9.53528 6.75971 8.60602C9.90118 6.44253 12.8177 4.43815 16 2.21939C19.9864 4.93821 22.0841 6.31664 25.3543 8.68207Z" fill="#608BBA"/>
</svg>
